X: 305833
M: 2/4
L: 1/16
K: G
g2g2 agfg | b2a2 a3d |\
b3g a2d2 | (g2d2) (B2d2) |\
c3B A2c2 |
d3c B2d2 | B2d2 B2d2 |\
e3g f>ga>f | g>ab>a g>fe>d |\
e>fg>e f>ga>f | g2b2g2 H|]


